X:1
T:Se tu mi lasci
T:Se tu mi lasci
T:Claudio Saracini
T:Source : Le terze Musiche per cantar e sonar---Venetia---A.Vincenti---1620. Editor : André Vierendeels (18/01/16).
T:Notes : Original clefs : C1, F4 Figures above the BC are notated in original print The original print was damaged (perhaps during WWII), necessitating an editorial addendum mm 31-32 Text : Torquato Tasso (Rime Libro IV)
T:©
T:©
T:©
T:©
C:Claudio Saracini
Z:©
%%score 1 2
L:1/8
Q:1/4=120
M:4/4
K:C
V:1 treble nm="Soprano" snm="S"
V:2 bass nm="BC" snm="BC"
V:1
 c8 | B6 A2 | A8 | A8 | d6 d2 | ^c6 c2 | B8 | B8 | z _BBB B3 A | c4 c4 | z ^ccc c>c d2 | %11
w: Se|tu mi|la-|sci,|per- fi-|da'e cru-|de-|le,|non ti pen- sar che|si- a,|mi- se- ra sen- za te,|
 z FFF FF F2 | A6 FE | E8 | D8 :: ^G2 GG GG A2 | A3 B BBBB | B6 A2 | A6 E2 | ^F4 F4 | d6 ^FF | %21
w: mi- se- ra sen- za te|la vi- ta|mi-|a.|Mi- se- ra ben sa- re-|i se mi- se- ria sti-|ma- si'e|non ven-|tu- ra,|per- der chi|
 ^G6 A2 | B8 | A8 | z BBB B>B BB | c6 G2 | A4 A4 | z ^GGG A4 | z BBB ^c4 | z BBc dGAA | dcBA GFED | %31
w: non mi|cu-|ra|e ri- co- vrar quel che di|me per-|de- i.|Mi- se- ra te,|mi- se- ra te,|che per no- vel- l'A- mo- re|per _ do quel fi- * * do|
 F8 | G8 | DDDG GGGG | A6 B2 | ^G4 G4 | BB d2 AG A2 | A2 cc d2 ^G^F | ^G2 G3 BBc | d6 c2 | B8 | %41
w: co-|re|ch'e- ra piu mi- o che tu di|te non|se- i,|ma il tuo gia per- d'i-|o, ma il tuo gia per|d'i- o, per- che non|fu mai|mi-|
 A8 :| %42
w: o.|
V:2
"^-natural" A,,8- | A,,8 | A,,8- | A,,8 | ^F,,8- | F,,8 | G,,8- | G,,8 |"^b" G,,8 | F,,8 | %10
 A,,6 D,2 |"^-natural" D,8 | A,,8- | A,,8 | D,8 :: E,6 ^C,2- | C,2 ^G,6 | ^G,4 ^C,4- | C,8 | %19
 D,4 D,,4 | D,8 | E,8- | E,8 | A,,8 | G,,8 | C,8 | F,,8 | E,,4 A,,4 |"^#" ^G,,4 A,,4 | B,,6 D,2 | %30
 B,,4 C,4 | D,8 | G,,8 | G,,8 |"^#" F,,4 E,,4 | E,8 | G,,2 D,2 D,2 C,2 | E,4 E,,4 | E,4 B,,4- | %39
 B,,4 E,,4 | E,8 | A,,8 :| %42

